svgs/solid/calendar-arrow-down.svg

<svg xmlns="http://www.w3.org/2000/svg" viewBox="0 0 448 512"><!-- Font Awesome Pro 6.0.0-alpha2 by @fontawesome - https://fontawesome.com License - https://fontawesome.com/license (Commercial License) --><path d="M448 112V160H0V112C0 85.49 21.49 64 48 64H96V32C96 14.4 110.4 0 128 0H128C145.6 0 160 14.4 160 32V64H288V32C288 14.4 302.4 0 320 0H320C337.6 0 352 14.4 352 32V64H400C426.51 64 448 85.49 448 112ZM0 192H448V464C448 490.5 426.5 512 400 512H48C21.5 512 0 490.5 0 464V192ZM320.969 327.031C311.594 317.656 296.406 317.656 287.031 327.031L248 366.062V264C248 250.75 237.25 240 224 240S200 250.75 200 264V366.062L160.969 327.031C156.281 322.344 150.156 320 144 320S131.719 322.344 127.031 327.031C117.656 336.406 117.656 351.594 127.031 360.969L207.031 440.969C216.406 450.344 231.594 450.344 240.969 440.969L320.969 360.969C330.344 351.594 330.344 336.406 320.969 327.031Z"/></svg>

<svg xmlns="http://www.w3.org/2000/svg" viewBox="0 0 448 512"><!--! Font Awesome Pro 6.4.0 by @fontawesome - https://fontawesome.com License - https://fontawesome.com/license (Commercial License) Copyright 2023 Fonticons, Inc. --><path d="M128 0c17.7 0 32 14.3 32 32V64H288V32c0-17.7 14.3-32 32-32s32 14.3 32 32V64h48c26.5 0 48 21.5 48 48v48H0V112C0 85.5 21.5 64 48 64H96V32c0-17.7 14.3-32 32-32zM0 192H448V464c0 26.5-21.5 48-48 48H48c-26.5 0-48-21.5-48-48V192zm248 72c0-13.3-10.7-24-24-24s-24 10.7-24 24V366.1l-39-39c-9.4-9.4-24.6-9.4-33.9 0s-9.4 24.6 0 33.9l80 80c9.4 9.4 24.6 9.4 33.9 0l80-80c9.4-9.4 9.4-24.6 0-33.9s-24.6-9.4-33.9 0l-39 39V264z"/></svg>
